TestTask/wwwroot/images/banner1.svg

<svg xmlns="http://www.w3.org/2000/svg" viewBox="0 0 1140 360" enable-background="new 0 0 1140 360"><path fill="#56B4D9" d="M0 0h1140v360h-1140v-360z"/><path fill="#fff" d="M163.29 114.514h-3.996l-3.266-8.637h-13.063l-3.072 8.637h-4.018l11.816-30.809h3.738l11.861 30.809zm-8.443-11.881l-4.834-13.127c-.158-.43-.315-1.117-.473-2.063h-.086c-.144.874-.308 1.562-.494 2.063l-4.791 13.127h10.678zm10.921 10.635v-4.254c.487.43 1.07.816 1.751 1.16.68.344 1.396.634 2.148.87s1.507.419 2.267.548c.759.129 1.461.193 2.105.193 2.22 0 3.878-.412 4.974-1.235s1.644-2.009 1.644-3.556c0-.831-.183-1.554-.548-2.17s-.87-1.178-1.515-1.687-1.407-.995-2.288-1.461-1.83-.956-2.847-1.472c-1.074-.544-2.077-1.096-3.008-1.654-.931-.559-1.74-1.175-2.428-1.848s-1.229-1.436-1.622-2.288c-.394-.853-.591-1.852-.591-2.997 0-1.403.308-2.625.924-3.663.616-1.038 1.425-1.895 2.428-2.567 1.002-.673 2.145-1.175 3.427-1.504 1.282-.329 2.589-.494 3.921-.494 3.036 0 5.249.365 6.639 1.096v4.061c-1.819-1.261-4.154-1.891-7.004-1.891-.788 0-1.576.082-2.363.247-.788.165-1.49.434-2.105.806-.616.372-1.117.853-1.504 1.439s-.58 1.304-.58 2.148c0 .788.146 1.468.44 2.041.293.573.727 1.096 1.3 1.568.573.473 1.271.931 2.095 1.375.823.444 1.772.931 2.847 1.461 1.103.544 2.148 1.117 3.137 1.719s1.854 1.268 2.6 1.998c.745.73 1.335 1.54 1.772 2.428.437.888.655 1.905.655 3.051 0 1.519-.297 2.804-.892 3.856-.595 1.053-1.396 1.908-2.406 2.567s-2.174 1.135-3.491 1.429c-1.318.293-2.707.44-4.168.44-.487 0-1.089-.04-1.805-.118-.716-.079-1.447-.193-2.191-.344-.745-.15-1.45-.337-2.116-.559s-1.202-.467-1.602-.739zm27.808-10.399v11.645h-3.609v-30.809h8.465c3.294 0 5.847.802 7.659 2.406 1.812 1.604 2.718 3.867 2.718 6.789s-1.006 5.313-3.019 7.176c-2.013 1.862-4.73 2.793-8.153 2.793h-4.061zm0-15.898v12.633h3.781c2.492 0 4.394-.569 5.704-1.708s1.966-2.746 1.966-4.823c0-4.067-2.406-6.102-7.219-6.102h-4.232zm21.169 28.015c-.659 0-1.221-.236-1.687-.709-.466-.473-.698-1.038-.698-1.697s.232-1.229.698-1.708c.465-.479 1.027-.72 1.687-.72.673 0 1.246.24 1.719.72s.709 1.049.709 1.708-.236 1.225-.709 1.697-1.047.709-1.719.709zm33.007-.472h-4.426l-15.855-24.557c-.401-.616-.73-1.261-.988-1.934h-.129c.114.659.172 2.069.172 4.232v22.258h-3.609v-30.808h4.684l15.426 24.17c.645 1.003 1.06 1.69 1.246 2.063h.086c-.144-.888-.215-2.399-.215-4.533v-21.7h3.609v30.809zm23.79 0h-16.328v-30.809h15.641v3.266h-12.031v10.248h11.129v3.244h-11.129v10.785h12.719v3.266zm23.533-27.543h-8.895v27.543h-3.609v-27.543h-8.873v-3.266h21.377v3.266zm36.623 26.254c-2.277 1.203-5.113 1.805-8.508 1.805-4.383 0-7.892-1.411-10.527-4.232-2.636-2.821-3.953-6.524-3.953-11.107 0-4.927 1.482-8.909 4.447-11.945s6.725-4.555 11.279-4.555c2.922 0 5.342.423 7.262 1.268v3.846c-2.206-1.231-4.641-1.848-7.305-1.848-3.538 0-6.406 1.182-8.604 3.545-2.199 2.363-3.298 5.521-3.298 9.475 0 3.753 1.027 6.742 3.083 8.97 2.055 2.228 4.751 3.341 8.089 3.341 3.094 0 5.772-.688 8.035-2.063v3.5zm14.38 1.804c-3.251 0-5.848-1.027-7.788-3.083-1.941-2.056-2.911-4.78-2.911-8.175 0-3.695 1.01-6.581 3.029-8.658s4.748-3.115 8.186-3.115c3.28 0 5.84 1.01 7.681 3.029 1.84 2.02 2.761 4.819 2.761 8.4 0 3.509-.992 6.32-2.976 8.433-1.984 2.113-4.645 3.169-7.982 3.169zm.258-20.066c-2.263 0-4.054.77-5.371 2.31-1.318 1.54-1.977 3.663-1.977 6.37 0 2.606.666 4.662 1.998 6.166s3.115 2.256 5.35 2.256c2.277 0 4.028-.737 5.253-2.213s1.837-3.573 1.837-6.295c0-2.75-.612-4.87-1.837-6.359s-2.976-2.235-5.253-2.235zm27.185 1.117c-.616-.473-1.504-.709-2.664-.709-1.504 0-2.761.709-3.771 2.127s-1.515 3.352-1.515 5.801v11.215h-3.523v-22h3.523v4.533h.086c.501-1.547 1.268-2.754 2.299-3.62s2.184-1.3 3.459-1.3c.917 0 1.618.101 2.105.301v3.652zm20.89 8.315h-15.533c.057 2.449.716 4.34 1.977 5.672 1.26 1.332 2.993 1.998 5.199 1.998 2.478 0 4.755-.816 6.832-2.449v3.309c-1.934 1.403-4.49 2.105-7.67 2.105-3.108 0-5.55-.999-7.326-2.997-1.776-1.998-2.664-4.809-2.664-8.433 0-3.423.97-6.213 2.911-8.368 1.94-2.155 4.351-3.233 7.229-3.233s5.106.931 6.682 2.793c1.575 1.862 2.363 4.447 2.363 7.756v1.847zm-3.61-2.987c-.015-2.034-.505-3.616-1.472-4.748s-2.31-1.697-4.028-1.697c-1.662 0-3.072.595-4.232 1.783s-1.876 2.743-2.148 4.662h11.88zm40.699-39.408h-1v74h1v-74zm83.592 54.095h-1.842l-7.165-24.235c-.359-1.243-.562-2.253-.606-3.032h-.09c-.045.659-.277 1.655-.696 2.987l-7.637 24.28h-1.842l-9.568-32.209h2.493l7.345 25.808c.329 1.168.562 2.119.696 2.853h.09c.09-.554.352-1.505.786-2.853l7.951-25.808h1.123l7.3 25.808c.344 1.198.576 2.149.696 2.853h.09c.075-.419.194-.898.359-1.438l7.547-27.223h2.403l-9.433 32.209zm14.445-28.795c-.449 0-.846-.165-1.19-.494-.345-.329-.517-.749-.517-1.258 0-.494.176-.895.528-1.202.352-.307.745-.46 1.179-.46.464 0 .872.15 1.224.449.352.3.528.704.528 1.213 0 .479-.172.891-.517 1.235-.344.345-.756.517-1.235.517zm-1.011 28.795v-23h2.066v23h-2.066zm24.239 0v-13.387c0-5.525-1.992-8.288-5.975-8.288-2.216 0-4.036.813-5.458 2.437-1.423 1.625-2.134 3.635-2.134 6.031v13.207h-2.066v-23h2.066v4.178h.09c1.677-3.159 4.297-4.739 7.861-4.739 2.485 0 4.387.828 5.705 2.482 1.317 1.655 1.977 4.017 1.977 7.086v13.993h-2.066zm24.485 0v-4.178h-.09c-.748 1.453-1.855 2.605-3.324 3.459-1.467.854-3.122 1.28-4.963 1.28-2.83 0-5.14-1.033-6.929-3.1-1.79-2.066-2.684-4.919-2.684-8.558 0-3.713.977-6.719 2.931-9.018 1.954-2.298 4.488-3.448 7.603-3.448 3.445 0 5.9 1.415 7.367 4.245h.09v-14.733h2.066v34.051h-2.067zm0-13.993c0-2.141-.678-3.957-2.031-5.447-1.355-1.49-3.18-2.235-5.47-2.235-2.411 0-4.402.925-5.975 2.774-1.572 1.85-2.358 4.391-2.358 7.625 0 3.175.708 5.626 2.123 7.356s3.238 2.594 5.469 2.594c2.62 0 4.649-.812 6.086-2.437 1.438-1.625 2.156-3.605 2.156-5.941v-4.289zm17.838 14.554c-3.354 0-6.009-1.104-7.962-3.313-1.955-2.208-2.932-5.08-2.932-8.614 0-3.818 1.021-6.806 3.066-8.962 2.043-2.156 4.735-3.234 8.074-3.234 3.279 0 5.87 1.071 7.771 3.212 1.901 2.142 2.853 5.106 2.853 8.895 0 3.579-.97 6.477-2.909 8.692-1.938 2.216-4.592 3.324-7.961 3.324zm.157-22.236c-2.71 0-4.87.914-6.48 2.74-1.609 1.827-2.414 4.365-2.414 7.614 0 3.01.786 5.428 2.358 7.255s3.721 2.74 6.446 2.74c2.771 0 4.904-.898 6.401-2.695s2.246-4.29 2.246-7.479c0-3.279-.745-5.795-2.235-7.547-1.489-1.752-3.596-2.628-6.322-2.628zm35.087 21.675h-1.932l-5.009-17.34c-.135-.479-.255-1.123-.359-1.932h-.112c-.03.345-.18.974-.449 1.887l-5.615 17.385h-1.932l-6.94-23h2.291l5.346 18.351c.135.479.239 1.123.314 1.932h.18c.03-.434.172-1.078.427-1.932l5.84-18.351h1.415l5.211 18.351c.12.435.225 1.078.314 1.932h.18c0-.434.127-1.078.382-1.932l5.458-18.351h2.134l-7.144 23zm9.616-1.011v-2.493c.778.674 1.722 1.206 2.83 1.595 1.108.39 2.066.584 2.875.584 3.608 0 5.413-1.475 5.413-4.425 0-1.018-.396-1.887-1.19-2.605s-2.081-1.46-3.863-2.224c-2.201-.958-3.747-1.95-4.638-2.976-.892-1.025-1.337-2.272-1.337-3.74 0-1.872.715-3.384 2.146-4.537 1.43-1.153 3.192-1.729 5.289-1.729 1.977 0 3.669.404 5.076 1.213v2.336c-1.707-1.108-3.474-1.662-5.301-1.662-1.513 0-2.732.393-3.661 1.179s-1.393 1.808-1.393 3.066c0 1.093.292 1.98.876 2.662.584.682 1.872 1.464 3.863 2.347 2.396 1.078 4.043 2.078 4.941 2.999s1.348 2.145 1.348 3.672c0 1.827-.686 3.335-2.055 4.526-1.371 1.19-3.261 1.786-5.672 1.786-2.215-.002-4.064-.526-5.547-1.574zm80.185 1.011v-32.209h2.224v30.188h12.915v2.021h-15.139zm20.802-28.795c-.449 0-.846-.165-1.19-.494-.345-.329-.517-.749-.517-1.258 0-.494.176-.895.528-1.202.352-.307.744-.46 1.179-.46.464 0 .872.15 1.224.449.353.3.528.704.528 1.213 0 .479-.172.891-.517 1.235-.345.345-.756.517-1.235.517zm-1.011 28.795v-23h2.066v23h-2.066zm24.238 0v-13.387c0-5.525-1.991-8.288-5.975-8.288-2.216 0-4.035.813-5.458 2.437-1.423 1.625-2.134 3.635-2.134 6.031v13.207h-2.066v-23h2.066v4.178h.09c1.677-3.159 4.298-4.739 7.861-4.739 2.485 0 4.388.828 5.705 2.482 1.317 1.655 1.977 4.017 1.977 7.086v13.993h-2.066zm23.34 0v-4.178h-.09c-1.603 3.16-4.073 4.739-7.412 4.739-5.436 0-8.153-3.421-8.153-10.265v-13.296h2.089v12.78c0 3.115.513 5.376 1.539 6.783 1.025 1.408 2.639 2.111 4.84 2.111 2.142 0 3.875-.786 5.199-2.358 1.326-1.572 1.988-3.668 1.988-6.289v-13.027h2.066v23h-2.066zm15.727-11.276l7.502 11.275h-2.628l-6.064-9.703h-.09l-.809 1.28c-.104.18-.232.382-.382.606l-5.076 7.816h-2.516l7.682-11.23-7.547-11.77h2.426l5.121 8.243c.659 1.063 1.056 1.722 1.19 1.977h.09l1.146-1.887 5.346-8.333h2.426l-7.817 11.726zm85.656 11.837c-4.552 0-8.18-1.512-10.883-4.537-2.702-3.024-4.054-6.955-4.054-11.792 0-5.136 1.389-9.25 4.167-12.342 2.777-3.092 6.569-4.638 11.376-4.638 4.343 0 7.857 1.486 10.546 4.458 2.688 2.973 4.031 6.87 4.031 11.691 0 5.331-1.378 9.523-4.133 12.578s-6.438 4.582-11.05 4.582zm.224-31.288c-3.743 0-6.824 1.355-9.242 4.065-2.419 2.71-3.628 6.259-3.628 10.646 0 4.433 1.146 7.962 3.437 10.59s5.346 3.942 9.164 3.942c3.983 0 7.135-1.299 9.456-3.897 2.321-2.598 3.481-6.218 3.481-10.86 0-4.552-1.135-8.104-3.402-10.658-2.27-2.551-5.357-3.828-9.266-3.828zm19.702 29.581v-2.538c2.306 1.468 4.642 2.201 7.008 2.201 2.516 0 4.425-.52 5.728-1.561s1.954-2.497 1.954-4.369c0-1.647-.438-2.961-1.313-3.942-.877-.98-2.774-2.317-5.694-4.009-3.265-1.901-5.331-3.493-6.199-4.773s-1.303-2.759-1.303-4.436c0-2.276.884-4.208 2.65-5.795 1.767-1.587 4.125-2.381 7.075-2.381 1.917 0 3.833.322 5.75.966v2.336c-1.887-.854-3.9-1.28-6.042-1.28-2.187 0-3.919.554-5.2 1.662-1.279 1.108-1.92 2.516-1.92 4.223 0 1.647.438 2.958 1.314 3.931.875.974 2.766 2.299 5.671 3.976 3.01 1.707 5.013 3.223 6.009 4.548.995 1.325 1.493 2.849 1.493 4.571 0 2.471-.857 4.485-2.571 6.042-1.715 1.558-4.137 2.336-7.267 2.336-1.108 0-2.385-.172-3.829-.517-1.446-.345-2.551-.742-3.314-1.191zm40.5 1.146l-7.412-12.286c-.464-.764-.861-1.512-1.19-2.246h-.112c-.404.824-.831 1.572-1.28 2.246l-7.547 12.286h-2.673l10.175-16.239-9.568-15.97h2.673l7.21 12.106c.374.629.764 1.348 1.168 2.156h.09l1.19-2.156 7.165-12.106h2.583l-9.658 15.925 9.883 16.284h-2.697z"/></svg>

<svg xmlns="http://www.w3.org/2000/svg" viewBox="0 0 1140 360" width="1140" height="360">
	<style>
		tspan { white-space:pre }
		.shp0 { fill: #56b4d9 } 
		.shp1 { fill: #ffffff } 
		.txt2 { font-size: 43px;fill: #000000;font-weight: 400;font-family: "DejaVuSans", "DejaVu Sans" } 
	</style>
	<path id="Layer" class="shp0" d="M0 0L1140 0L1140 360L0 360L0 0Z" />
	<path id="Layer" fill-rule="evenodd" class="shp1" d="M163.29 114.51L159.29 114.51L156.03 105.88L142.97 105.88L139.89 114.51L135.88 114.51L147.69 83.7L151.43 83.7L163.29 114.51ZM150.01 89.51C149.85 89.08 149.7 88.39 149.54 87.44L149.45 87.44C149.31 88.32 149.15 89 148.96 89.51L144.17 102.63L154.85 102.63L150.01 89.51ZM165.77 109.01C166.25 109.44 166.84 109.83 167.52 110.17C168.2 110.52 168.91 110.81 169.67 111.04C170.42 111.28 171.17 111.46 171.93 111.59C172.69 111.72 173.39 111.78 174.04 111.78C176.26 111.78 177.92 111.37 179.01 110.55C180.11 109.73 180.66 108.54 180.66 106.99C180.66 106.16 180.47 105.44 180.11 104.82C179.74 104.21 179.24 103.65 178.59 103.14C177.95 102.63 177.19 102.14 176.31 101.68C175.42 101.21 174.48 100.72 173.46 100.2C172.38 99.66 171.38 99.11 170.45 98.55C169.52 97.99 168.71 97.38 168.02 96.7C167.33 96.03 166.79 95.27 166.4 94.41C166.01 93.56 165.81 92.56 165.81 91.42C165.81 90.01 166.12 88.79 166.73 87.75C167.35 86.72 168.16 85.86 169.16 85.19C170.16 84.51 171.31 84.01 172.59 83.68C173.87 83.35 175.18 83.19 176.51 83.19C179.55 83.19 181.76 83.55 183.15 84.29L183.15 88.35C181.33 87.09 178.99 86.45 176.14 86.45C175.36 86.45 174.57 86.54 173.78 86.7C172.99 86.87 172.29 87.14 171.68 87.51C171.06 87.88 170.56 88.36 170.17 88.95C169.79 89.53 169.59 90.25 169.59 91.09C169.59 91.88 169.74 92.56 170.03 93.14C170.33 93.71 170.76 94.23 171.33 94.7C171.91 95.18 172.6 95.63 173.43 96.08C174.25 96.52 175.2 97.01 176.27 97.54C177.38 98.08 178.42 98.66 179.41 99.26C180.4 99.86 181.27 100.53 182.01 101.26C182.76 101.99 183.35 102.8 183.78 103.68C184.22 104.57 184.44 105.59 184.44 106.74C184.44 108.25 184.14 109.54 183.55 110.59C182.95 111.64 182.15 112.5 181.14 113.16C180.13 113.82 178.97 114.29 177.65 114.59C176.33 114.88 174.94 115.03 173.48 115.03C172.99 115.03 172.39 114.99 171.68 114.91C170.96 114.83 170.23 114.72 169.49 114.57C168.74 114.42 168.04 114.23 167.37 114.01C166.7 113.79 166.17 113.54 165.77 113.27L165.77 109.01ZM193.58 114.51L189.97 114.51L189.97 83.7L198.43 83.7C201.73 83.7 204.28 84.51 206.09 86.11C207.9 87.72 208.81 89.98 208.81 92.9C208.81 95.82 207.8 98.21 205.79 100.08C203.78 101.94 201.06 102.87 197.64 102.87L193.58 102.87L193.58 114.51ZM193.58 99.6L197.36 99.6C199.85 99.6 201.75 99.03 203.06 97.9C204.37 96.76 205.03 95.15 205.03 93.07C205.03 89.01 202.62 86.97 197.81 86.97L193.58 86.97L193.58 99.6ZM214.74 114.99C214.09 114.99 213.52 114.75 213.06 114.28C212.59 113.8 212.36 113.24 212.36 112.58C212.36 111.92 212.59 111.35 213.06 110.87C213.52 110.39 214.08 110.15 214.74 110.15C215.42 110.15 215.99 110.39 216.46 110.87C216.94 111.35 217.17 111.92 217.17 112.58C217.17 113.24 216.94 113.8 216.46 114.28C215.99 114.75 215.42 114.99 214.74 114.99ZM243.33 114.51L227.47 89.96C227.07 89.34 226.74 88.7 226.48 88.02L226.35 88.02C226.47 88.68 226.53 90.09 226.53 92.26L226.53 114.51L222.92 114.51L222.92 83.71L227.6 83.71L243.03 107.88C243.67 108.88 244.09 109.57 244.27 109.94L244.36 109.94C244.22 109.05 244.14 107.54 244.14 105.41L244.14 83.71L247.75 83.71L247.75 114.51L243.33 114.51ZM255.21 114.51L255.21 83.71L270.85 83.71L270.85 86.97L258.82 86.97L258.82 97.22L269.95 97.22L269.95 100.46L258.82 100.46L258.82 111.25L271.54 111.25L271.54 114.51L255.21 114.51ZM286.18 86.97L286.18 114.51L282.57 114.51L282.57 86.97L273.7 86.97L273.7 83.7L295.08 83.7L295.08 86.97L286.18 86.97ZM323.19 115.03C318.81 115.03 315.3 113.62 312.66 110.8C310.03 107.98 308.71 104.27 308.71 99.69C308.71 94.76 310.19 90.78 313.16 87.75C316.12 84.71 319.88 83.19 324.44 83.19C327.36 83.19 329.78 83.61 331.7 84.46L331.7 88.31C329.49 87.07 327.06 86.46 324.39 86.46C320.86 86.46 317.99 87.64 315.79 90C313.59 92.37 312.49 95.52 312.49 99.48C312.49 103.23 313.52 106.22 315.57 108.45C317.63 110.67 320.33 111.79 323.66 111.79C326.76 111.79 329.44 111.1 331.7 109.72L331.7 113.22C329.42 114.43 326.58 115.03 323.19 115.03ZM338.29 111.95C336.35 109.89 335.38 107.17 335.38 103.77C335.38 100.08 336.39 97.19 338.41 95.11C340.43 93.04 343.16 92 346.59 92C349.87 92 352.43 93.01 354.27 95.03C356.11 97.05 357.04 99.85 357.04 103.43C357.04 106.94 356.04 109.75 354.06 111.86C352.08 113.97 349.41 115.03 346.08 115.03C342.83 115.03 340.23 114 338.29 111.95ZM340.96 97.27C339.65 98.81 338.99 100.94 338.99 103.64C338.99 106.25 339.65 108.31 340.99 109.81C342.32 111.31 344.1 112.07 346.34 112.07C348.61 112.07 350.36 111.33 351.59 109.85C352.81 108.38 353.43 106.28 353.43 103.56C353.43 100.81 352.81 98.69 351.59 97.2C350.36 95.71 348.61 94.96 346.34 94.96C344.07 94.96 342.28 95.73 340.96 97.27ZM373.52 96.08L373.52 96.08C373.52 96.08 373.52 96.08 373.52 96.08L373.52 96.08ZM370.86 95.37C369.35 95.37 368.1 96.08 367.09 97.5C366.08 98.92 365.57 100.85 365.57 103.3L365.57 114.51L362.05 114.51L362.05 92.51L365.57 92.51L365.57 97.05L365.66 97.05C366.16 95.5 366.92 94.29 367.96 93.43C368.99 92.56 370.14 92.13 371.41 92.13C372.33 92.13 373.03 92.23 373.52 92.43L373.52 96.08C372.9 95.61 372.02 95.37 370.86 95.37ZM378.88 104.4C378.93 106.84 379.59 108.74 380.85 110.07C382.11 111.4 383.85 112.07 386.05 112.07C388.53 112.07 390.81 111.25 392.89 109.62L392.89 112.93C390.95 114.33 388.4 115.03 385.22 115.03C382.11 115.03 379.67 114.03 377.89 112.03C376.11 110.04 375.23 107.22 375.23 103.6C375.23 100.18 376.2 97.39 378.14 95.23C380.08 93.08 382.49 92 385.37 92C388.24 92 390.47 92.93 392.05 94.79C393.62 96.65 394.41 99.24 394.41 102.55L394.41 104.4L378.88 104.4ZM389.33 96.66C388.36 95.53 387.02 94.96 385.3 94.96C383.64 94.96 382.23 95.56 381.07 96.75C379.91 97.93 379.19 99.49 378.92 101.41L390.8 101.41C390.79 99.37 390.3 97.79 389.33 96.66ZM431.5 62L431.5 136L430.5 136L430.5 62L431.5 62ZM513.25 116.1L506.08 91.86C505.73 90.62 505.52 89.61 505.48 88.83L505.39 88.83C505.34 89.49 505.11 90.48 504.69 91.82L497.06 116.1L495.21 116.1L485.65 83.89L488.14 83.89L495.48 109.69C495.81 110.86 496.05 111.81 496.18 112.55L496.27 112.55C496.36 111.99 496.62 111.04 497.06 109.69L505.01 83.89L506.13 83.89L513.43 109.69C513.77 110.89 514.01 111.84 514.13 112.55L514.22 112.55C514.29 112.13 514.41 111.65 514.58 111.11L522.12 83.89L524.53 83.89L515.09 116.1L513.25 116.1ZM528.35 86.81C528 86.48 527.83 86.06 527.83 85.55C527.83 85.05 528.01 84.65 528.36 84.35C528.71 84.04 529.1 83.89 529.54 83.89C530 83.89 530.41 84.04 530.76 84.34C531.11 84.64 531.29 85.04 531.29 85.55C531.29 86.03 531.12 86.44 530.77 86.78C530.43 87.13 530.02 87.3 529.54 87.3C529.09 87.3 528.69 87.14 528.35 86.81ZM528.53 116.1L528.53 93.1L530.59 93.1L530.59 116.1L528.53 116.1ZM552.77 116.1L552.77 102.71C552.77 97.18 550.77 94.42 546.79 94.42C544.57 94.42 542.75 95.23 541.33 96.86C539.91 98.48 539.2 100.49 539.2 102.89L539.2 116.1L537.13 116.1L537.13 93.1L539.2 93.1L539.2 97.27L539.29 97.27C540.97 94.11 543.59 92.53 547.15 92.53C549.63 92.53 551.54 93.36 552.85 95.02C554.17 96.67 554.83 99.03 554.83 102.1L554.83 116.1L552.77 116.1ZM577.25 111.92L577.16 111.92C576.41 113.37 575.31 114.52 573.84 115.38C572.37 116.23 570.71 116.66 568.87 116.66C566.04 116.66 563.73 115.62 561.94 113.56C560.15 111.49 559.26 108.64 559.26 105C559.26 101.29 560.24 98.28 562.19 95.98C564.15 93.68 566.68 92.53 569.79 92.53C573.24 92.53 575.69 93.95 577.16 96.78L577.25 96.78L577.25 82.04L579.32 82.04L579.32 116.1L577.25 116.1L577.25 111.92ZM575.22 96.66C573.86 95.17 572.04 94.42 569.75 94.42C567.34 94.42 565.35 95.35 563.77 97.19C562.2 99.04 561.42 101.59 561.42 104.82C561.42 107.99 562.12 110.45 563.54 112.18C564.95 113.91 566.78 114.77 569.01 114.77C571.63 114.77 573.66 113.96 575.09 112.33C576.53 110.71 577.25 108.73 577.25 106.39L577.25 102.1C577.25 99.96 576.57 98.15 575.22 96.66ZM587.13 113.34C585.17 111.14 584.19 108.26 584.19 104.73C584.19 100.91 585.22 97.92 587.26 95.77C589.3 93.61 592 92.53 595.33 92.53C598.61 92.53 601.2 93.6 603.11 95.75C605.01 97.89 605.96 100.85 605.96 104.64C605.96 108.22 604.99 111.12 603.05 113.33C601.11 115.55 598.46 116.66 595.09 116.66C591.73 116.66 589.08 115.55 587.13 113.34ZM588.77 97.16C587.16 98.99 586.35 101.53 586.35 104.77C586.35 107.78 587.14 110.2 588.71 112.03C590.28 113.86 592.43 114.77 595.16 114.77C597.93 114.77 600.06 113.87 601.56 112.07C603.05 110.28 603.8 107.78 603.8 104.6C603.8 101.32 603.06 98.8 601.57 97.05C600.08 95.3 597.97 94.42 595.25 94.42C592.53 94.42 590.38 95.33 588.77 97.16ZM628.4 116.1L623.39 98.76C623.26 98.28 623.14 97.63 623.03 96.82L622.92 96.82C622.89 97.17 622.74 97.8 622.47 98.71L616.86 116.1L614.92 116.1L607.98 93.1L610.28 93.1L615.62 111.45C615.76 111.93 615.86 112.57 615.94 113.38L616.12 113.38C616.14 112.94 616.29 112.3 616.54 111.45L622.38 93.1L623.8 93.1L629.01 111.45C629.13 111.88 629.23 112.52 629.32 113.38L629.5 113.38C629.5 112.94 629.63 112.3 629.88 111.45L635.34 93.1L637.48 93.1L630.33 116.1L628.4 116.1ZM639.95 112.59C640.73 113.27 641.67 113.8 642.78 114.19C643.89 114.58 644.84 114.77 645.65 114.77C649.26 114.77 651.07 113.3 651.07 110.35C651.07 109.33 650.67 108.46 649.88 107.74C649.08 107.02 647.8 106.28 646.01 105.52C643.81 104.56 642.27 103.57 641.38 102.54C640.48 101.52 640.04 100.27 640.04 98.8C640.04 96.93 640.75 95.42 642.18 94.26C643.61 93.11 645.38 92.53 647.47 92.53C649.45 92.53 651.14 92.94 652.55 93.75L652.55 96.08C650.84 94.98 649.07 94.42 647.25 94.42C645.73 94.42 644.52 94.81 643.59 95.6C642.66 96.39 642.19 97.41 642.19 98.67C642.19 99.76 642.49 100.65 643.07 101.33C643.65 102.01 644.94 102.79 646.93 103.68C649.33 104.75 650.98 105.75 651.87 106.67C652.77 107.59 653.22 108.82 653.22 110.35C653.22 112.17 652.54 113.68 651.17 114.87C649.8 116.06 647.91 116.66 645.5 116.66C643.28 116.66 641.43 116.13 639.95 115.08L639.95 112.59ZM720.13 116.1L720.13 83.89L722.36 83.89L722.36 114.07L735.27 114.07L735.27 116.1L720.13 116.1ZM739.75 86.81C739.4 86.48 739.23 86.06 739.23 85.55C739.23 85.05 739.4 84.65 739.76 84.35C740.11 84.04 740.5 83.89 740.93 83.89C741.4 83.89 741.81 84.04 742.16 84.34C742.51 84.64 742.69 85.04 742.69 85.55C742.69 86.03 742.51 86.44 742.17 86.78C741.82 87.13 741.41 87.3 740.93 87.3C740.49 87.3 740.09 87.14 739.75 86.81ZM739.92 116.1L739.92 93.1L741.99 93.1L741.99 116.1L739.92 116.1ZM764.16 116.1L764.16 102.71C764.16 97.18 762.17 94.42 758.19 94.42C755.97 94.42 754.15 95.23 752.73 96.86C751.31 98.48 750.6 100.49 750.6 102.89L750.6 116.1L748.53 116.1L748.53 93.1L750.6 93.1L750.6 97.27L750.69 97.27C752.36 94.11 754.98 92.53 758.55 92.53C761.03 92.53 762.93 93.36 764.25 95.02C765.57 96.67 766.23 99.03 766.23 102.1L766.23 116.1L764.16 116.1ZM787.5 111.92L787.41 111.92C785.81 115.08 783.34 116.66 780 116.66C774.56 116.66 771.85 113.24 771.85 106.39L771.85 93.1L773.94 93.1L773.94 105.88C773.94 108.99 774.45 111.25 775.48 112.66C776.5 114.07 778.11 114.77 780.32 114.77C782.46 114.77 784.19 113.98 785.51 112.41C786.84 110.84 787.5 108.74 787.5 106.12L787.5 93.1L789.57 93.1L789.57 116.1L787.5 116.1L787.5 111.92ZM810.73 116.09L808.1 116.09L802.04 106.39L801.95 106.39L801.14 107.67C801.04 107.85 800.91 108.05 800.76 108.28L795.68 116.09L793.17 116.09L800.85 104.86L793.3 93.09L795.73 93.09L800.85 101.34C801.51 102.4 801.9 103.06 802.04 103.31L802.13 103.31L803.27 101.43L808.62 93.09L811.05 93.09L803.23 104.82L810.73 116.09ZM878 112.12C875.3 109.1 873.95 105.16 873.95 100.33C873.95 95.19 875.34 91.08 878.12 87.99C880.89 84.89 884.68 83.35 889.49 83.35C893.83 83.35 897.35 84.83 900.04 87.81C902.73 90.78 904.07 94.68 904.07 99.5C904.07 104.83 902.69 109.02 899.93 112.07C897.18 115.13 893.5 116.66 888.88 116.66C884.33 116.66 880.71 115.14 878 112.12ZM879.87 89.43C877.45 92.14 876.24 95.69 876.24 100.08C876.24 104.51 877.38 108.04 879.68 110.67C881.97 113.3 885.02 114.61 888.84 114.61C892.82 114.61 895.98 113.31 898.3 110.71C900.62 108.12 901.78 104.5 901.78 99.85C901.78 95.3 900.64 91.75 898.38 89.2C896.11 86.65 893.02 85.37 889.11 85.37C885.37 85.37 882.29 86.72 879.87 89.43ZM908.81 112.41C911.12 113.88 913.45 114.61 915.82 114.61C918.34 114.61 920.24 114.09 921.55 113.05C922.85 112.01 923.5 110.55 923.5 108.68C923.5 107.04 923.06 105.72 922.19 104.74C921.31 103.76 919.41 102.42 916.49 100.73C913.23 98.83 911.16 97.24 910.3 95.96C909.43 94.68 908.99 93.2 908.99 91.52C908.99 89.25 909.88 87.31 911.64 85.73C913.41 84.14 915.77 83.35 918.72 83.35C920.63 83.35 922.55 83.67 924.47 84.31L924.47 86.65C922.58 85.79 920.57 85.37 918.43 85.37C916.24 85.37 914.51 85.92 913.23 87.03C911.95 88.14 911.31 89.55 911.31 91.25C911.31 92.9 911.74 94.21 912.62 95.18C913.49 96.16 915.38 97.48 918.29 99.16C921.3 100.87 923.3 102.38 924.3 103.71C925.29 105.03 925.79 106.56 925.79 108.28C925.79 110.75 924.94 112.76 923.22 114.32C921.51 115.88 919.08 116.66 915.95 116.66C914.85 116.66 913.57 116.49 912.13 116.14C910.68 115.8 909.57 115.4 908.81 114.95L908.81 112.41ZM949.31 116.1L941.9 103.81C941.43 103.05 941.04 102.3 940.71 101.56L940.6 101.56C940.19 102.39 939.77 103.14 939.32 103.81L931.77 116.1L929.1 116.1L939.27 99.86L929.7 83.89L932.38 83.89L939.59 95.99C939.96 96.62 940.35 97.34 940.75 98.15L940.85 98.15L942.04 95.99L949.2 83.89L951.78 83.89L942.13 99.81L952.01 116.1L949.31 116.1Z" />
	<path id="форма 1" class="shp1" d="M78 55L1062 55L1062 149L78 149L78 55Z" />
	<text id="HERE IS A PLACE FOR YOUR ADVERTI" style="transform: matrix(1,0,0,1,119,84)" >
		<tspan x="0" y="43" class="txt2">HERE IS A PLACE FOR YOUR ADVERTISING</tspan>
	</text>
</svg>
